X: 926
T: the Hon. Mrs Maule's Favourite
C: Niel Gow
R: reel
Z: 2006 John Chambers <jc:trillian.mit.edu>
B: Whetherly 9 #26
B: RSCDS 14-7 II
M: C|
L: 1/8
K: A
e \
| "A"agae ceAc | "D"dFBA "E7"GBEG | "A"A2cA "D"FDfe | "B(m)"dcBA "E7"GEg2 |
| "A"agae ceAc | "Bm"dFBA "E7"GBEG | "A"AedA "Bm"FfdB | "E7"GEFG "A"A2A |]
|: d \
| "A"cBcd eca2 | "D"fdb2 "E7"gefg | "A"aefc "D"dfBd | "E7"ceGB "A"A3 :|
